img/main-page/cards/04.svg

<svg width="70" height="70" viewBox="0 0 70 70" fill="none" xmlns="http://www.w3.org/2000/svg">
<path d="M48.578 20.0002C48.3739 20.0056 48.1781 20.0822 48.0245 20.2167C47.8709 20.3512 47.7692 20.5352 47.7369 20.7368C47.7047 20.9384 47.7439 21.1449 47.8479 21.3207C47.9519 21.4964 48.114 21.6302 48.3062 21.699C50.7743 22.6258 52.7634 23.7869 54.0929 25.0417C55.4224 26.2966 56.0787 27.5966 56.0787 28.9228C56.0787 30.1024 55.5621 31.2543 54.5098 32.3853C53.4576 33.5162 51.8723 34.5904 49.8734 35.499C45.8756 37.3162 40.2436 38.4744 34.0174 38.4744C27.7912 38.4744 22.1593 37.3162 18.1615 35.499C16.1626 34.5904 14.5773 33.5162 13.525 32.3853C12.4727 31.2543 11.9561 30.1024 11.9561 28.9228C11.9561 27.7418 12.4746 26.5893 13.5301 25.457C14.5856 24.3247 16.1758 23.2489 18.1803 22.3398C18.2888 22.295 18.3872 22.2288 18.4696 22.1451C18.552 22.0614 18.6167 21.962 18.6599 21.8528C18.7031 21.7436 18.7239 21.6268 18.7209 21.5094C18.718 21.392 18.6915 21.2763 18.643 21.1694C18.5944 21.0624 18.5249 20.9664 18.4384 20.8869C18.352 20.8074 18.2504 20.7461 18.1398 20.7067C18.0291 20.6673 17.9117 20.6506 17.7945 20.6575C17.6772 20.6644 17.5626 20.6949 17.4574 20.7471C15.3003 21.7254 13.5225 22.8975 12.2501 24.2624C10.9777 25.6274 10.2061 27.2208 10.2061 28.9228C10.2061 30.6225 10.9744 32.2144 12.2432 33.5781C13.5121 34.9418 15.2853 36.1138 17.4368 37.0918C21.74 39.0478 27.5763 40.2244 34.0174 40.2244C40.4586 40.2244 46.2949 39.0478 50.598 37.0918C52.7495 36.1138 54.5227 34.9418 55.7916 33.5781C57.0604 32.2144 57.8287 30.6225 57.8287 28.9228C57.8287 27.0116 56.8612 25.2476 55.2943 23.7686C53.7273 22.2895 51.5468 21.0477 48.9215 20.0618C48.8123 20.0184 48.6954 19.9975 48.578 20.0002ZM5.97127 30.8164C5.73951 30.82 5.51865 30.9155 5.35716 31.0817C5.19568 31.248 5.10677 31.4716 5.10995 31.7034C5.10995 33.7229 6.02012 35.6185 7.54696 37.2593C9.0738 38.9001 11.2216 40.3237 13.8343 41.5112C19.0598 43.8863 26.1697 45.3206 34.0174 45.3206C41.8651 45.3206 48.9734 43.8863 54.1988 41.5112C56.8115 40.3237 58.9593 38.9001 60.4862 37.2593C62.013 35.6185 62.9232 33.7229 62.9232 31.7034C62.9248 31.5874 62.9034 31.4723 62.8602 31.3647C62.8169 31.2571 62.7527 31.1592 62.6713 31.0766C62.5899 30.994 62.4929 30.9285 62.3859 30.8837C62.2789 30.839 62.1641 30.8159 62.0482 30.8159C61.9322 30.8159 61.8174 30.839 61.7104 30.8837C61.6035 30.9285 61.5065 30.994 61.425 31.0766C61.3436 31.1592 61.2794 31.2571 61.2362 31.3647C61.193 31.4723 61.1715 31.5874 61.1732 31.7034C61.1732 33.2027 60.5147 34.6601 59.2044 36.0681C57.8942 37.4762 55.936 38.7986 53.4759 39.9167C48.5557 42.1531 41.6502 43.5706 34.0174 43.5706C26.3846 43.5706 19.4774 42.1531 14.5572 39.9167C12.0971 38.7986 10.1389 37.4762 8.8287 36.0681C7.51846 34.6601 6.85995 33.2027 6.85995 31.7034C6.86155 31.5863 6.83964 31.4701 6.79553 31.3617C6.75142 31.2532 6.68599 31.1547 6.60312 31.072C6.52026 30.9893 6.42164 30.9241 6.31311 30.8802C6.20458 30.8363 6.08834 30.8146 5.97127 30.8164Z" fill="#E4B564"/>
<line x1="6" y1="30" x2="6" y2="60" stroke="#E4B564" stroke-width="2"/>
<line x1="62" y1="30" x2="62" y2="60" stroke="#E4B564" stroke-width="2"/>
<line x1="6" y1="59" x2="61" y2="59" stroke="#E4B564" stroke-width="2"/>
</svg>

<svg width="70" height="70" fill="none" xmlns="http://www.w3.org/2000/svg"><path d="M48.578 20a.875.875 0 00-.272 1.699c2.468.927 4.457 2.088 5.787 3.343s1.986 2.555 1.986 3.88c0 1.18-.517 2.332-1.57 3.463-1.051 1.131-2.637 2.205-4.636 3.114-3.997 1.817-9.63 2.975-15.856 2.975-6.226 0-11.858-1.158-15.856-2.975-1.998-.909-3.584-1.983-4.636-3.114-1.052-1.13-1.569-2.283-1.569-3.462 0-1.181.519-2.334 1.574-3.466 1.056-1.132 2.646-2.208 4.65-3.117a.874.874 0 10-.723-1.593c-2.157.978-3.934 2.15-5.207 3.515-1.272 1.365-2.044 2.959-2.044 4.66 0 1.7.768 3.292 2.037 4.656 1.27 1.364 3.042 2.536 5.194 3.514 4.303 1.956 10.14 3.132 16.58 3.132 6.442 0 12.278-1.176 16.581-3.132 2.151-.978 3.925-2.15 5.194-3.514 1.268-1.364 2.037-2.956 2.037-4.655 0-1.911-.968-3.675-2.535-5.154-1.567-1.48-3.747-2.721-6.372-3.707a.876.876 0 00-.344-.062zM5.971 30.816a.875.875 0 00-.861.887c0 2.02.91 3.915 2.437 5.556 1.527 1.641 3.675 3.065 6.287 4.252 5.226 2.375 12.336 3.81 20.183 3.81 7.848 0 14.956-1.435 20.182-3.81 2.613-1.187 4.76-2.61 6.287-4.252 1.527-1.64 2.437-3.536 2.437-5.556a.877.877 0 00-1.498-.626.875.875 0 00-.252.626c0 1.5-.658 2.957-1.969 4.365-1.31 1.408-3.268 2.73-5.728 3.849-4.92 2.236-11.826 3.654-19.459 3.654-7.632 0-14.54-1.418-19.46-3.654-2.46-1.118-4.418-2.44-5.728-3.849-1.31-1.408-1.97-2.865-1.97-4.365a.875.875 0 00-.888-.887z" fill="#E4B564"/><path stroke="#E4B564" stroke-width="2" d="M6 30v30m56-30v30M6 59h55"/></svg>
